packages/icons/src/crumpled-paper.svg

<svg width="15" height="15" viewBox="0 0 15 15" fill="none" xmlns="http://www.w3.org/2000/svg">
  <path
    fill-rule="evenodd"
    clip-rule="evenodd"
    d="M4.60913 0.0634287C4.39082 0.0088505 4.16575 0.12393 4.08218 0.332867L3.1538 2.6538L0.832866 3.58218C0.702884 3.63417 0.604504 3.7437 0.566705 3.87849C0.528906 4.01329 0.555994 4.158 0.639992 4.26999L2.01148 6.09864L1.06343 9.89085C1.00944 10.1068 1.12145 10.3298 1.32691 10.4154L4.20115 11.613L5.62557 13.7496C5.73412 13.9124 5.93545 13.9864 6.12362 13.9327L9.62362 12.9327C9.62988 12.9309 9.63611 12.929 9.64229 12.9269L12.6423 11.9269C12.7923 11.8769 12.905 11.7519 12.9393 11.5976L13.9393 7.09761C13.9776 6.92506 13.9114 6.74605 13.77 6.63999L11.95 5.27499V2.99999C11.95 2.82955 11.8537 2.67373 11.7012 2.5975L8.70124 1.0975C8.67187 1.08282 8.64098 1.07139 8.60913 1.06343L4.60913 0.0634287ZM11.4323 6.01173L12.7748 7.01858L10.2119 9.15429C10.1476 9.20786 10.0995 9.2783 10.0731 9.35769L9.25382 11.8155L7.73849 10.8684C7.52774 10.7367 7.25011 10.8007 7.11839 11.0115C6.98667 11.2222 7.05074 11.4999 7.26149 11.6316L8.40341 12.3453L6.19221 12.9771L4.87441 11.0004C4.82513 10.9265 4.75508 10.8688 4.67307 10.8346L2.03046 9.73352L2.85134 6.44999H4.99999C5.24852 6.44999 5.44999 6.24852 5.44999 5.99999C5.44999 5.75146 5.24852 5.54999 4.99999 5.54999H2.72499L1.7123 4.19974L3.51407 3.47903L6.35769 4.4269C6.53655 4.48652 6.73361 4.42832 6.85138 4.28111L8.62413 2.06518L11.05 3.27811V5.19533L8.83287 6.08218C8.70996 6.13134 8.61494 6.23212 8.57308 6.35769L8.07308 7.85769C7.99449 8.09346 8.12191 8.34831 8.35769 8.4269C8.59346 8.50549 8.84831 8.37807 8.9269 8.14229L9.3609 6.84029L11.4323 6.01173ZM7.71052 1.76648L6.34462 3.47386L4.09505 2.724L4.77192 1.03183L7.71052 1.76648ZM10.2115 11.7885L12.116 11.1537L12.7745 8.19034L10.8864 9.76374L10.2115 11.7885Z"
    fill="currentColor"
  />
</svg>

<svg xmlns="http://www.w3.org/2000/svg" width="15" height="15" fill="none"><path fill="currentColor" fill-rule="evenodd" d="M4.61.063a.45.45 0 0 0-.528.27l-.928 2.32-2.321.93a.45.45 0 0 0-.193.687l1.371 1.829-.948 3.792a.45.45 0 0 0 .264.524L4.2 11.613l1.425 2.137a.45.45 0 0 0 .498.183l3.5-1 .018-.006 3-1a.45.45 0 0 0 .297-.33l1-4.5a.45.45 0 0 0-.169-.457l-1.82-1.365V3a.45.45 0 0 0-.249-.402l-3-1.5a.5.5 0 0 0-.092-.035zm6.822 5.949 1.343 1.007-2.563 2.135a.45.45 0 0 0-.139.204l-.82 2.457-1.515-.947a.45.45 0 1 0-.477.764l1.142.713-2.21.632L4.873 11a.45.45 0 0 0-.2-.165L2.03 9.734l.821-3.284H5a.45.45 0 1 0 0-.9H2.725L1.712 4.2l1.802-.721 2.844.948a.45.45 0 0 0 .493-.146l1.773-2.216 2.426 1.213v1.917l-2.217.887a.45.45 0 0 0-.26.276l-.5 1.5a.45.45 0 1 0 .854.284L9.36 6.84zM7.711 1.766 6.345 3.474l-2.25-.75.677-1.692zm2.5 10.023 1.905-.635.659-2.964-1.889 1.574z" clip-rule="evenodd"/></svg>
